Newaita-dark/.places-retrowave/scalable/folder-software.svg

<?xml version="1.0" encoding="UTF-8"?>
<svg xmlns="http://www.w3.org/2000/svg" xmlns:xlink="http://www.w3.org/1999/xlink" width="512pt" height="512pt" viewBox="0 0 512 512" version="1.1">
<defs>
<linearGradient id="linear0" gradientUnits="userSpaceOnUse" x1="254" y1="233.5" x2="254" y2="254.666672" gradientTransform="matrix(1.000095,0,0,1.000095,-0.000061041,215.020562)">
<stop offset="0" style="stop-color:rgb(0%,0%,0%);stop-opacity:0.27451;"/>
<stop offset="1" style="stop-color:rgb(0%,0%,0%);stop-opacity:0;"/>
</linearGradient>
<radialGradient id="radial0" gradientUnits="userSpaceOnUse" cx="450.908936" cy="189.579361" fx="450.908936" fy="189.579361" r="21.166656" gradientTransform="matrix(0.00000278673,-1.250119,-2.250215,-0.00000162462,865.843403,1017.525321)">
<stop offset="0" style="stop-color:rgb(0%,0%,0%);stop-opacity:0.313725;"/>
<stop offset="0.222222" style="stop-color:rgb(0%,0%,0%);stop-opacity:0.27451;"/>
<stop offset="1" style="stop-color:rgb(0%,0%,0%);stop-opacity:0;"/>
</radialGradient>
<radialGradient id="radial1" gradientUnits="userSpaceOnUse" cx="450.908936" cy="189.579361" fx="450.908936" fy="189.579361" r="21.166656" gradientTransform="matrix(-0.00000278673,1.250119,2.250215,0.00000162462,-357.794846,-120.439662)">
<stop offset="0" style="stop-color:rgb(0%,0%,0%);stop-opacity:0.313725;"/>
<stop offset="0.222222" style="stop-color:rgb(0%,0%,0%);stop-opacity:0.27451;"/>
<stop offset="1" style="stop-color:rgb(0%,0%,0%);stop-opacity:0;"/>
</radialGradient>
<radialGradient id="radial2" gradientUnits="userSpaceOnUse" cx="450.908936" cy="189.579361" fx="450.908936" fy="189.579361" r="21.166656" gradientTransform="matrix(-0.00000278673,-1.250119,2.250215,-0.00000162462,-357.794846,1017.525321)">
<stop offset="0" style="stop-color:rgb(0%,0%,0%);stop-opacity:0.313725;"/>
<stop offset="0.222222" style="stop-color:rgb(0%,0%,0%);stop-opacity:0.27451;"/>
<stop offset="1" style="stop-color:rgb(0%,0%,0%);stop-opacity:0;"/>
</radialGradient>
<radialGradient id="radial3" gradientUnits="userSpaceOnUse" cx="450.908936" cy="189.579361" fx="450.908936" fy="189.579361" r="21.166656" gradientTransform="matrix(0.00000278673,1.250119,-2.250215,0.00000162462,865.843372,-120.43967)">
<stop offset="0" style="stop-color:rgb(0%,0%,0%);stop-opacity:0.313725;"/>
<stop offset="0.222222" style="stop-color:rgb(0%,0%,0%);stop-opacity:0.27451;"/>
<stop offset="1" style="stop-color:rgb(0%,0%,0%);stop-opacity:0;"/>
</radialGradient>
<linearGradient id="linear1" gradientUnits="userSpaceOnUse" x1="359.833344" y1="-147.5" x2="359.833344" y2="-62.833332" gradientTransform="matrix(1.000095,0,0,1.000095,0,215.020531)">
<stop offset="0" style="stop-color:rgb(39.215686%,70.980392%,96.470588%);stop-opacity:1;"/>
<stop offset="1" style="stop-color:rgb(73.333333%,87.058824%,98.431373%);stop-opacity:1;"/>
</linearGradient>
<linearGradient id="linear2" gradientUnits="userSpaceOnUse" x1="254" y1="-105.166656" x2="254" y2="95.916672" gradientTransform="matrix(1.000095,0,0,1.000095,0,215.020527)">
<stop offset="0" style="stop-color:rgb(39.215686%,70.980392%,96.470588%);stop-opacity:1;"/>
<stop offset="1" style="stop-color:rgb(98.823529%,89.411765%,92.54902%);stop-opacity:1;"/>
</linearGradient>
<linearGradient id="linear3" gradientUnits="userSpaceOnUse" x1="880" y1="1695.118164" x2="880" y2="1095.118164" gradientTransform="matrix(0.264609,0,0,0.264609,0,0)">
<stop offset="0" style="stop-color:rgb(14.901961%,19.607843%,21.960784%);stop-opacity:1;"/>
<stop offset="0.666667" style="stop-color:rgb(27.058824%,35.294118%,39.215686%);stop-opacity:1;"/>
<stop offset="1" style="stop-color:rgb(38.039216%,38.039216%,38.039216%);stop-opacity:1;"/>
</linearGradient>
<linearGradient id="linear4" gradientUnits="userSpaceOnUse" x1="960" y1="1375.118164" x2="960" y2="775.118103" gradientTransform="matrix(0.264583,0,0,0.264583,0.00000933333,-209.708084)">
<stop offset="0" style="stop-color:rgb(69.019608%,74.509804%,77.254902%);stop-opacity:1;"/>
<stop offset="0.375" style="stop-color:rgb(77.254902%,79.215686%,91.372549%);stop-opacity:1;"/>
<stop offset="1" style="stop-color:rgb(32.941176%,43.137255%,47.843137%);stop-opacity:1;"/>
</linearGradient>
</defs>
<g id="surface1">
<path style=" stroke:none;fill-rule:nonzero;fill:url(#linear0);" d="M 63.507812 448.542969 L 444.542969 448.542969 L 444.542969 469.710938 L 63.507812 469.710938 Z M 63.507812 448.542969 "/>
<path style=" stroke:none;fill-rule:nonzero;fill:url(#radial0);" d="M 444.542969 448.542969 L 486.878906 448.542969 L 486.878906 427.375 L 444.542969 427.375 Z M 444.542969 448.542969 "/>
<path style=" stroke:none;fill-rule:nonzero;fill:url(#radial1);" d="M 63.507812 448.542969 L 21.167969 448.542969 L 21.167969 469.710938 L 63.507812 469.710938 Z M 63.507812 448.542969 "/>
<path style=" stroke:none;fill-rule:nonzero;fill:url(#radial2);" d="M 63.507812 448.542969 L 21.167969 448.542969 L 21.167969 427.375 L 63.507812 427.375 Z M 63.507812 448.542969 "/>
<path style=" stroke:none;fill-rule:nonzero;fill:url(#radial3);" d="M 444.542969 448.542969 L 486.878906 448.542969 L 486.878906 469.710938 L 444.542969 469.710938 Z M 444.542969 448.542969 "/>
<path style=" stroke:none;fill-rule:nonzero;fill:url(#linear1);" d="M 116.429688 67.507812 L 460.417969 67.507812 C 472.109375 67.507812 481.585938 76.984375 481.585938 88.675781 L 481.585938 168.058594 C 481.585938 179.75 472.109375 189.226562 460.417969 189.226562 L 116.429688 189.226562 C 104.738281 189.226562 95.257812 179.75 95.257812 168.058594 L 95.257812 88.675781 C 95.257812 76.984375 104.738281 67.507812 116.429688 67.507812 Z M 116.429688 67.507812 "/>
<path style=" stroke:none;fill-rule:nonzero;fill:rgb(90.196079%,90.196079%,90.196079%);fill-opacity:0.588235;" d="M 116.429688 67.507812 C 104.699219 67.507812 95.257812 76.949219 95.257812 88.675781 L 95.257812 91.320312 C 95.257812 79.59375 104.699219 70.152344 116.429688 70.152344 L 460.417969 70.152344 C 472.144531 70.152344 481.585938 79.59375 481.585938 91.320312 L 481.585938 88.675781 C 481.585938 76.949219 472.144531 67.507812 460.417969 67.507812 Z M 116.429688 67.507812 "/>
<path style=" stroke:none;fill-rule:nonzero;fill:rgb(12.941177%,12.941177%,12.941177%);fill-opacity:1;" d="M 116.425781 66.007812 C 103.894531 66.007812 93.757812 76.140625 93.757812 88.675781 L 93.757812 168.058594 C 93.757812 180.589844 103.894531 190.726562 116.425781 190.726562 L 460.417969 190.726562 C 472.953125 190.726562 483.085938 180.589844 483.085938 168.058594 L 483.085938 88.675781 C 483.085938 76.140625 472.953125 66.007812 460.417969 66.007812 Z M 116.425781 69.007812 L 460.417969 69.007812 C 471.339844 69.007812 480.085938 77.753906 480.085938 88.675781 L 480.085938 168.058594 C 480.085938 178.980469 471.339844 187.726562 460.417969 187.726562 L 116.425781 187.726562 C 105.503906 187.726562 96.757812 178.980469 96.757812 168.058594 L 96.757812 88.675781 C 96.757812 77.753906 105.503906 69.007812 116.425781 69.007812 Z M 116.425781 69.007812 "/>
<path style=" stroke:none;fill-rule:nonzero;fill:url(#linear2);" d="M 42.335938 109.84375 C 30.609375 109.84375 21.167969 119.285156 21.167969 131.011719 L 21.167969 427.375 C 21.167969 439.101562 30.609375 448.542969 42.335938 448.542969 L 465.710938 448.542969 C 477.4375 448.542969 486.878906 439.101562 486.878906 427.375 L 486.878906 162.765625 L 201.101562 162.765625 C 189.375 162.765625 179.933594 153.324219 179.933594 141.597656 L 179.933594 109.84375 Z M 42.335938 109.84375 "/>
<path style=" stroke:none;fill-rule:nonzero;fill:url(#linear3);" d="M 21.167969 289.777344 L 21.167969 427.375 C 21.167969 439.101562 30.609375 448.542969 42.335938 448.542969 L 465.710938 448.542969 C 477.4375 448.542969 486.878906 439.101562 486.878906 427.375 L 486.878906 289.777344 C 468.992188 291.554688 465.710938 300.363281 428.664062 289.777344 C 419.40625 285.808594 395.589844 287.132812 370.453125 289.777344 C 349.285156 289.777344 328.113281 279.191406 312.238281 289.777344 C 306.945312 292.421875 296.878906 293.304688 283.882812 293.25 C 248.730469 300.363281 216.980469 300.363281 185.5 288.285156 C 169.347656 284.484375 151.578125 288.011719 137.597656 289.777344 C 100.550781 295.070312 95.257812 300.363281 79.382812 289.777344 C 63.507812 284.484375 47.628906 295.070312 21.167969 289.777344 Z M 21.167969 289.777344 "/>
<path style=" stroke:none;fill-rule:nonzero;fill:rgb(0%,0%,0%);fill-opacity:0.196078;" d="M 42.335938 448.542969 C 30.609375 448.542969 21.167969 439.101562 21.167969 427.375 L 21.167969 424.726562 C 21.167969 436.457031 30.609375 445.898438 42.335938 445.898438 L 465.710938 445.898438 C 477.4375 445.898438 486.878906 436.457031 486.878906 424.726562 L 486.878906 427.375 C 486.878906 439.101562 477.4375 448.542969 465.710938 448.542969 Z M 42.335938 448.542969 "/>
<path style=" stroke:none;fill-rule:nonzero;fill:rgb(90.196079%,90.196079%,90.196079%);fill-opacity:0.937255;" d="M 42.335938 109.84375 C 30.609375 109.84375 21.167969 119.285156 21.167969 131.011719 L 21.167969 133.660156 C 21.167969 121.929688 30.609375 112.488281 42.335938 112.488281 L 179.933594 112.488281 L 179.933594 109.84375 Z M 42.335938 109.84375 "/>
<path style=" stroke:none;fill-rule:nonzero;fill:rgb(90.196079%,90.196079%,90.196079%);fill-opacity:0.937255;" d="M 199.78125 164.089844 C 188.050781 164.089844 178.609375 154.648438 178.609375 142.917969 L 178.609375 140.273438 C 178.609375 152 188.050781 161.464844 199.78125 161.441406 L 486.878906 161.441406 L 486.878906 164.089844 Z M 199.78125 164.089844 "/>
<path style=" stroke:none;fill-rule:nonzero;fill:rgb(12.941177%,12.941177%,12.941177%);fill-opacity:1;" d="M 42.335938 108.34375 C 29.804688 108.34375 19.667969 118.480469 19.667969 131.011719 L 19.667969 427.375 C 19.667969 439.90625 29.804688 450.042969 42.335938 450.042969 L 465.710938 450.042969 C 478.242188 450.042969 488.378906 439.90625 488.378906 427.375 L 488.378906 159.765625 L 201.101562 159.765625 C 190.179688 159.765625 181.433594 151.019531 181.433594 140.097656 L 181.433594 108.34375 Z M 42.335938 111.34375 L 178.433594 111.34375 L 178.433594 140.097656 C 178.433594 152.628906 188.570312 162.765625 201.101562 162.765625 L 485.378906 162.765625 L 485.378906 427.375 C 485.378906 438.296875 476.632812 447.042969 465.710938 447.042969 L 42.335938 447.042969 C 31.414062 447.042969 22.667969 438.296875 22.667969 427.375 L 22.667969 131.011719 C 22.667969 120.089844 31.414062 111.34375 42.335938 111.34375 Z M 42.335938 111.34375 "/>
<path style="fill-rule:nonzero;fill:url(#linear4);stroke-width:3;stroke-linecap:round;stroke-linejoin:miter;stroke:rgb(12.941177%,12.941177%,12.941177%);stroke-opacity:1;stroke-miterlimit:4;" d="M 248.706718 -4.625559 C 242.843997 -4.625559 238.125698 0.0966468 238.125698 5.959368 L 238.125698 24.238873 C 235.125984 25.176283 232.243447 26.371481 229.501521 27.801032 L 216.58088 14.880391 C 212.436745 10.736256 205.761601 10.736256 201.613559 14.880391 L 194.129899 22.364052 C 189.985764 26.512093 189.985764 33.187237 194.129899 37.331372 L 207.05054 50.252013 C 205.620989 52.993939 204.425791 55.876476 203.48838 58.87619 L 185.208876 58.87619 C 179.346155 58.87619 174.623949 63.594489 174.623949 69.457211 L 174.623949 80.042137 C 174.623949 85.904859 179.346155 90.623158 185.208876 90.623158 L 203.48838 90.623158 C 204.425791 93.626778 205.620989 96.509315 207.05054 99.251241 L 194.129899 112.167976 C 189.985764 116.312111 189.985764 122.987255 194.129899 127.135296 L 201.613559 134.618957 C 205.761601 138.763092 212.436745 138.763092 216.58088 134.618957 L 229.501521 121.702222 C 232.243447 123.127867 235.125984 124.326971 238.125698 125.260475 L 238.125698 143.53998 C 238.125698 149.406607 242.843997 154.124907 248.706718 154.124907 L 259.291645 154.124907 C 265.154367 154.124907 269.876572 149.406607 269.876572 143.53998 L 269.876572 125.260475 C 272.876285 124.326971 275.758823 123.127867 278.500748 121.702222 L 291.417484 134.618957 C 295.565525 138.763092 302.240669 138.763092 306.384804 134.618957 L 313.868465 127.135296 C 318.0126 122.987255 318.0126 116.312111 313.868465 112.167976 L 300.951729 99.251241 C 302.377374 96.509315 303.576479 93.626778 304.509983 90.623158 L 322.793394 90.623158 C 328.656115 90.623158 333.374414 85.904859 333.374414 80.042137 L 333.374414 69.457211 C 333.374414 63.594489 328.656115 58.87619 322.793394 58.87619 L 304.509983 58.87619 C 303.576479 55.876476 302.377374 52.993939 300.951729 50.252013 L 313.868465 37.331372 C 318.0126 33.187237 318.0126 26.512093 313.868465 22.364052 L 306.384804 14.880391 C 302.240669 10.736256 295.565525 10.736256 291.417484 14.880391 L 278.500748 27.801032 C 275.758823 26.371481 272.876285 25.176283 269.876572 24.238873 L 269.876572 5.959368 C 269.876572 0.0966468 265.154367 -4.625559 259.291645 -4.625559 Z M 253.999182 48.291263 C 268.657938 48.291263 280.457593 60.090918 280.457593 74.749674 C 280.457593 89.40843 268.657938 101.208085 253.999182 101.208085 C 239.340425 101.208085 227.540771 89.40843 227.540771 74.749674 C 227.540771 60.090918 239.340425 48.291263 253.999182 48.291263 Z M 253.999182 48.291263 " transform="matrix(1.000095,0,0,1.000095,0,215.020531)"/>
<path style=" stroke:none;fill-rule:nonzero;fill:rgb(25.882354%,25.882354%,25.882354%);fill-opacity:0.313725;" d="M 329.390625 285.074219 C 323.226562 285.109375 317.449219 286.304688 312.238281 289.777344 C 306.945312 292.421875 296.878906 293.304688 283.882812 293.25 C 282.636719 293.503906 281.394531 293.742188 280.15625 293.976562 C 278.152344 306.625 267.253906 316.238281 254.023438 316.238281 C 242.136719 316.238281 232.128906 308.476562 228.769531 297.726562 C 214.097656 296.753906 199.769531 293.761719 185.5 288.285156 C 181.9375 287.449219 178.300781 286.96875 174.640625 286.746094 L 174.640625 295.070312 C 174.640625 300.933594 179.363281 305.652344 185.226562 305.652344 L 203.507812 305.652344 C 204.445312 308.65625 205.640625 311.539062 207.070312 314.28125 L 194.148438 327.199219 C 190.003906 331.34375 190.003906 338.019531 194.148438 342.167969 L 201.632812 349.652344 C 205.78125 353.796875 212.457031 353.796875 216.601562 349.652344 L 229.523438 336.734375 C 232.265625 338.160156 235.148438 339.359375 238.148438 340.292969 L 238.148438 358.574219 C 238.148438 364.4375 242.867188 369.160156 248.730469 369.160156 L 259.316406 369.160156 C 265.179688 369.160156 269.902344 364.4375 269.902344 358.574219 L 269.902344 340.292969 C 272.902344 339.359375 275.785156 338.160156 278.527344 336.734375 L 291.445312 349.652344 C 295.59375 353.796875 302.269531 353.796875 306.414062 349.652344 L 313.898438 342.167969 C 318.042969 338.019531 318.042969 331.34375 313.898438 327.199219 L 300.980469 314.28125 C 302.40625 311.539062 303.605469 308.65625 304.539062 305.652344 L 322.824219 305.652344 C 328.6875 305.652344 333.40625 300.933594 333.40625 295.070312 L 333.40625 285.203125 C 332.050781 285.117188 330.710938 285.066406 329.390625 285.074219 Z M 329.390625 285.074219 "/>
</g>
</svg>

<svg xmlns="http://www.w3.org/2000/svg" width="512pt" height="512pt" viewBox="0 0 512 512"><defs><linearGradient id="a" gradientUnits="userSpaceOnUse" x1="254" y1="233.5" x2="254" y2="254.667" gradientTransform="matrix(1.0001 0 0 1.0001 0 215.02)"><stop offset="0" stop-opacity=".275"/><stop offset="1" stop-opacity="0"/></linearGradient><radialGradient id="b" gradientUnits="userSpaceOnUse" cx="450.909" cy="189.579" fx="450.909" fy="189.579" r="21.167" gradientTransform="matrix(0 -1.25012 -2.25021 0 865.843 1017.525)"><stop offset="0" stop-opacity=".314"/><stop offset=".222" stop-opacity=".275"/><stop offset="1" stop-opacity="0"/></radialGradient><radialGradient id="c" gradientUnits="userSpaceOnUse" cx="450.909" cy="189.579" fx="450.909" fy="189.579" r="21.167" gradientTransform="matrix(0 1.25012 2.25021 0 -357.795 -120.44)"><stop offset="0" stop-opacity=".314"/><stop offset=".222" stop-opacity=".275"/><stop offset="1" stop-opacity="0"/></radialGradient><radialGradient id="d" gradientUnits="userSpaceOnUse" cx="450.909" cy="189.579" fx="450.909" fy="189.579" r="21.167" gradientTransform="matrix(0 -1.25012 2.25021 0 -357.795 1017.525)"><stop offset="0" stop-opacity=".314"/><stop offset=".222" stop-opacity=".275"/><stop offset="1" stop-opacity="0"/></radialGradient><radialGradient id="e" gradientUnits="userSpaceOnUse" cx="450.909" cy="189.579" fx="450.909" fy="189.579" r="21.167" gradientTransform="matrix(0 1.25012 -2.25021 0 865.843 -120.44)"><stop offset="0" stop-opacity=".314"/><stop offset=".222" stop-opacity=".275"/><stop offset="1" stop-opacity="0"/></radialGradient><linearGradient id="f" gradientUnits="userSpaceOnUse" x1="359.833" y1="-147.5" x2="359.833" y2="-62.833" gradientTransform="matrix(1.0001 0 0 1.0001 0 215.02)"><stop offset="0" stop-color="#64b5f6"/><stop offset="1" stop-color="#bbdefb"/></linearGradient><linearGradient id="g" gradientUnits="userSpaceOnUse" x1="254" y1="-105.167" x2="254" y2="95.917" gradientTransform="matrix(1.0001 0 0 1.0001 0 215.02)"><stop offset="0" stop-color="#64b5f6"/><stop offset="1" stop-color="#fce4ec"/></linearGradient><linearGradient id="h" gradientUnits="userSpaceOnUse" x1="880" y1="1695.118" x2="880" y2="1095.118" gradientTransform="rotate(.158) scale(.26461)"><stop offset="0" stop-color="#263238"/><stop offset=".667" stop-color="#455a64"/><stop offset="1" stop-color="#616161"/></linearGradient><linearGradient id="i" gradientUnits="userSpaceOnUse" x1="960" y1="1375.118" x2="960" y2="775.118" gradientTransform="matrix(.26458 0 0 .26458 0 -209.708)"><stop offset="0" stop-color="#b0bec5"/><stop offset=".375" stop-color="#c5cae9"/><stop offset="1" stop-color="#546e7a"/></linearGradient></defs><path d="M63.508 448.543h381.035v21.168H63.508zm0 0" fill="url(#a)"/><path d="M444.543 448.543h42.336v-21.168h-42.336zm0 0" fill="url(#b)"/><path d="M63.508 448.543h-42.34v21.168h42.34zm0 0" fill="url(#c)"/><path d="M63.508 448.543h-42.34v-21.168h42.34zm0 0" fill="url(#d)"/><path d="M444.543 448.543h42.336v21.168h-42.336zm0 0" fill="url(#e)"/><path d="M116.43 67.508h343.988c11.691 0 21.168 9.476 21.168 21.168v79.383c0 11.691-9.477 21.168-21.168 21.168H116.43c-11.692 0-21.172-9.477-21.172-21.168V88.676c0-11.692 9.48-21.168 21.172-21.168zm0 0" fill="url(#f)"/><path d="M116.43 67.508a21.123 21.123 0 0 0-21.172 21.168v2.644a21.123 21.123 0 0 1 21.172-21.168h343.988a21.122 21.122 0 0 1 21.168 21.168v-2.644a21.122 21.122 0 0 0-21.168-21.168zm0 0" fill="#e6e6e6" fill-opacity=".588"/><path d="M116.426 66.008c-12.531 0-22.668 10.133-22.668 22.668v79.383c0 12.53 10.137 22.668 22.668 22.668h343.992c12.535 0 22.668-10.137 22.668-22.668V88.676c0-12.535-10.133-22.668-22.668-22.668zm0 3h343.992a19.592 19.592 0 0 1 19.668 19.668v79.383a19.592 19.592 0 0 1-19.668 19.668H116.426a19.592 19.592 0 0 1-19.668-19.668V88.676a19.592 19.592 0 0 1 19.668-19.668zm0 0" fill="#212121"/><path d="M42.336 109.844a21.122 21.122 0 0 0-21.168 21.168v296.363a21.122 21.122 0 0 0 21.168 21.168H465.71a21.122 21.122 0 0 0 21.168-21.168v-264.61H201.102a21.122 21.122 0 0 1-21.168-21.167v-31.754zm0 0" fill="url(#g)"/><path d="M21.168 289.777v137.598a21.122 21.122 0 0 0 21.168 21.168H465.71a21.122 21.122 0 0 0 21.168-21.168V289.777c-17.887 1.778-21.168 10.586-58.215 0-9.258-3.968-33.074-2.644-58.21 0-21.169 0-42.34-10.586-58.216 0-5.293 2.645-15.36 3.528-28.355 3.473-35.153 7.113-66.903 7.113-98.383-4.965-16.152-3.8-33.922-.273-47.902 1.492-37.047 5.293-42.34 10.586-58.215 0-15.875-5.293-31.754 5.293-58.215 0zm0 0" fill="url(#h)"/><path d="M42.336 448.543a21.122 21.122 0 0 1-21.168-21.168v-2.648a21.123 21.123 0 0 0 21.168 21.171H465.71a21.123 21.123 0 0 0 21.168-21.171v2.648a21.122 21.122 0 0 1-21.168 21.168zm0 0" fill-opacity=".196"/><path d="M42.336 109.844a21.122 21.122 0 0 0-21.168 21.168v2.648a21.123 21.123 0 0 1 21.168-21.172h137.598v-2.644zm0 0M199.781 164.09a21.124 21.124 0 0 1-21.172-21.172v-2.645c0 11.727 9.442 21.192 21.172 21.168H486.88v2.649zm0 0" fill="#e6e6e6" fill-opacity=".937"/><path d="M42.336 108.344c-12.531 0-22.668 10.136-22.668 22.668v296.363c0 12.531 10.137 22.668 22.668 22.668H465.71c12.531 0 22.668-10.137 22.668-22.668v-267.61H201.102a19.592 19.592 0 0 1-19.668-19.667v-31.754zm0 3h136.098v28.754c0 12.53 10.136 22.668 22.668 22.668h284.277v264.609a19.592 19.592 0 0 1-19.668 19.668H42.336a19.592 19.592 0 0 1-19.668-19.668V131.012a19.592 19.592 0 0 1 19.668-19.668zm0 0" fill="#212121"/><path d="M248.707-4.626A10.56 10.56 0 0 0 238.126 5.96v18.28c-3 .937-5.883 2.132-8.624 3.562l-12.921-12.92a10.564 10.564 0 0 0-14.967 0l-7.484 7.483a10.564 10.564 0 0 0 0 14.967l12.92 12.921a52.557 52.557 0 0 0-3.562 8.624h-18.28a10.56 10.56 0 0 0-10.584 10.581v10.585a10.56 10.56 0 0 0 10.585 10.581h18.28a52.458 52.458 0 0 0 3.562 8.628l-12.921 12.917a10.564 10.564 0 0 0 0 14.967l7.484 7.484a10.564 10.564 0 0 0 14.967 0l12.92-12.917a52.542 52.542 0 0 0 8.625 3.558v18.28a10.558 10.558 0 0 0 10.58 10.585h10.586a10.561 10.561 0 0 0 10.585-10.585v-18.28c3-.933 5.882-2.132 8.624-3.558l12.916 12.917a10.564 10.564 0 0 0 14.968 0l7.483-7.484a10.564 10.564 0 0 0 0-14.967l-12.916-12.917a52.443 52.443 0 0 0 3.558-8.628h18.283a10.557 10.557 0 0 0 10.581-10.58V69.456a10.557 10.557 0 0 0-10.58-10.58H304.51c-.934-3-2.133-5.883-3.558-8.625l12.916-12.92a10.564 10.564 0 0 0 0-14.968l-7.483-7.484a10.564 10.564 0 0 0-14.968 0l-12.916 12.921a52.557 52.557 0 0 0-8.624-3.562V5.959a10.563 10.563 0 0 0-10.585-10.585zm5.292 52.917a26.4 26.4 0 0 1 26.459 26.459 26.4 26.4 0 0 1-26.459 26.458 26.4 26.4 0 0 1-26.458-26.458 26.4 26.4 0 0 1 26.458-26.459zm0 0" transform="matrix(1.0001 0 0 1.0001 0 215.02)" fill="url(#i)" stroke-width="3" stroke-linecap="round" stroke="#212121"/><path d="M329.39 285.074c-6.163.035-11.94 1.23-17.152 4.703-5.293 2.645-15.36 3.528-28.355 3.473-1.246.254-2.488.492-3.727.727a26.402 26.402 0 0 1-26.133 22.261 26.403 26.403 0 0 1-25.253-18.511c-14.672-.973-29-3.965-43.27-9.442-3.563-.836-7.2-1.316-10.86-1.539v8.324a10.561 10.561 0 0 0 10.587 10.582h18.28a52.463 52.463 0 0 0 3.563 8.63l-12.922 12.917a10.565 10.565 0 0 0 0 14.969l7.485 7.484a10.565 10.565 0 0 0 14.969 0l12.921-12.918a52.547 52.547 0 0 0 8.625 3.559v18.281a10.561 10.561 0 0 0 10.582 10.586h10.586a10.564 10.564 0 0 0 10.586-10.586v-18.281c3-.934 5.883-2.133 8.625-3.559l12.918 12.918a10.565 10.565 0 0 0 14.97 0l7.483-7.484a10.565 10.565 0 0 0 0-14.969l-12.918-12.918a52.448 52.448 0 0 0 3.56-8.629h18.284a10.558 10.558 0 0 0 10.582-10.582v-9.867a58.137 58.137 0 0 0-4.015-.129zm0 0" fill="#424242" fill-opacity=".314"/></svg>
